docs/assets/icons/nas.svg

<?xml version="1.0" encoding="UTF-8"?>
<svg version="1.1" viewBox="0 0 24 17" xmlns="http://www.w3.org/2000/svg"><g transform="matrix(1.1753 0 0 1.1753 -2.1033 -5.6033)" stroke-linecap="round" stroke-linejoin="round"><path d="m8 8v8h3v-8h-3m4 0v8h3v-8h-3m4 0v8h3v-8h-3m-7 1h1v1h-1v-1m4 0h1v1h-1v-1m4 0h1v1h-1z" fill="#4cae4f" stroke="#0091eb" stroke-width=".17017"/><path d="m4 5c-1.11 0-2 .89-2 2v10c0 1.11.89 2 2 2h16c1.11 0 2-.89 2-2v-10c0-1.11-.89-2-2-2h-16m.5 2c.55228 0 1 .44772 1 1s-.44772 1-1 1-1-.44772-1-1 .44772-1 1-1m2.5 0h13v10h-13v-10" fill="#0091eb" stroke="#4cae4f" stroke-width=".34035" style="paint-order:normal"/></g></svg>

<?xml version="1.0" encoding="UTF-8" standalone="no"?>
<svg
   id="mdi-nas"
   viewBox="0 0 24 17"
   version="1.1"
   sodipodi:docname="nas.svg"
   inkscape:version="1.4.3 (0d15f75042, 2025-12-25)"
   width="24"
   height="17"
   xmlns:inkscape="http://www.inkscape.org/namespaces/inkscape"
   xmlns:sodipodi="http://sodipodi.sourceforge.net/DTD/sodipodi-0.dtd"
   xmlns="http://www.w3.org/2000/svg"
   xmlns:svg="http://www.w3.org/2000/svg">
  <defs
     id="defs1" />
  <sodipodi:namedview
     id="namedview1"
     pagecolor="#505050"
     bordercolor="#ffffff"
     borderopacity="1"
     inkscape:showpageshadow="0"
     inkscape:pageopacity="0"
     inkscape:pagecheckerboard="1"
     inkscape:deskcolor="#505050"
     inkscape:zoom="24.166667"
     inkscape:cx="8.4620688"
     inkscape:cy="12.57931"
     inkscape:window-width="2560"
     inkscape:window-height="1368"
     inkscape:window-x="0"
     inkscape:window-y="0"
     inkscape:window-maximized="1"
     inkscape:current-layer="mdi-nas" />
  <g
     id="g2"
     transform="matrix(1.1882758,0,0,1.1882758,-2.2593096,-5.7593096)">
    <path
       d="m 8,8 v 8 h 3 V 8 H 8 m 4,0 v 8 h 3 V 8 h -3 m 4,0 v 8 h 3 V 8 H 16 M 9,9 h 1 v 1 H 9 V 9 m 4,0 h 1 v 1 H 13 V 9 m 4,0 h 1 v 1 h -1 z"
       id="path1"
       sodipodi:nodetypes="cccccccccccccccccccccccccccccc"
       style="fill:#4cae4f;fill-opacity:1" />
    <path
       d="M 4,5 C 2.89,5 2,5.89 2,7 v 10 c 0,1.11 0.89,2 2,2 h 16 c 1.11,0 2,-0.89 2,-2 V 7 C 22,5.89 21.11,5 20,5 H 4 m 0.5,2 c 0.5522847,0 1,0.4477153 1,1 0,0.5522847 -0.4477153,1 -1,1 -0.5522847,0 -1,-0.4477153 -1,-1 0,-0.5522847 0.4477153,-1 1,-1 M 7,7 H 20 V 17 H 7 V 7"
       id="path2"
       sodipodi:nodetypes="csssssssccssscccccc"
       style="fill:#0091eb;fill-opacity:1" />
  </g>
</svg>
